X:1
T:Ne te forte Lupi
T:Daniel Friderici
T:Source : Bicinia sacra---Rostock---J.Richelius---1642. Editor : André Vierendeels (12/07/17).
T:Notes : Original clefs : C1,C1 Editorial accidentals above the staff
T:Ne te forte Lupi
T:©
T:©
C:Daniel Friderici
Z:©
%%score [ 1 2 ]
L:1/8
Q:1/4=120
M:2/2
K:C
V:1 treble nm="Soprano 1" snm="S 1"
V:2 treble nm="Soprano 2" snm="S 2"
V:1
 d2 d2 d2 d2 | e4 d4 | cBcd cBcd | c4 c2 B2 | A3 A d4 | c2 B2 B2 AG | A8 | G4 A4 | B2 A2 G2 A2 | %9
w: Ne te for- te|Lu- pi|fal- * * * * * * *|* lant sub|pel- li- bus|a- * * * *||gni, sub|pel- * * *|
 B2 G2 A2 B2 | c2 d2 e2 d2 | e2 c2 d2 B2 | c3 c B2 A2 | G2 D2 G4 | A8 | B8 :: d4 B4 | z4 z2 d2 | %18
w: |||* li- bus a-|||gni:|Ver- bum,|ver-|
 e2 d2 c4 | B4 GABc | d2 d2 ABcd | e4 EFGA | B2 B2 GABc | d4 DEFG | A2 A2 EFGA | B4 GABc | %26
w: bum sit vi-|tae re- * * *|* gu- la, _ _ _|_ re- * * *|* gu- la, _ _ _|_ re- * * *|* gu- la, _ _ _|_ re- * * *|
 d2 d2 B4 | z2 c3 c B2 | A2 G4 ^F2 | G8 :| %30
w: * gu- la,|re- gu- la|cer- ta tu-|ae.|
V:2
 B2 B2 B2 B2 | c4 B4 | AGAB AGAB | A4 A2 d2 | c3 c B4 | A2 G2 G4- | G2 ^FE F4 | G4 D4 | %8
w: Ne te for- te|Lu- pi|fal- * * * * * * *|* lant sub|pel- li- bus|a- * *||gni, sub|
 G2 A2 B2 c2 | d2 B2 c2 d2 | e2 d2 c2 B2 | A4 G4 | A4 d2 c2 | B2 A2 G4- | G2 ^FE F4 | G8 :: z8 | %17
w: pel- * * *|||* li-|bus a- *|||gni:||
 d4 B2 B2 | c2 B2 A4 | d8 |"^#" DEFG A2 A2 |"^#" EFGA B4 |"^#" EFGA B2 B2 | GABc d4 | ABcd e2 e2 | %25
w: Ver- bum, ver-|bum sit vi-|tae|re- * * * * gu-|la, _ _ _ _|re- * * * * gu-|la, _ _ _ _|re- * * * * gu-|
"^#" EFGA B4 | GABc d2 d2 | B2 e3 e d2 | c2 B2 A4 | G8 :| %30
w: la, _ _ _ _|re- * * * * gu-|la re- gu- la|cer- ta tu-|ae.|

